packages/blockchain-info-components/src/Images/img/banks/bank-logo-citizens.svg

<svg fill="none" height="32" viewBox="0 0 32 32" width="32" xmlns="http://www.w3.org/2000/svg"><path clip-rule="evenodd" d="m4.56823 4.56759c-.74917.74916-.75929 1.9792 0 2.73849l4.47478 4.47482-3.10804-.0304c-1.21487-.0304-1.91849.82-1.91849 1.8881 0 1.0934.85548 1.9488 1.91849 1.9488h3.86733c.8504 0 1.5388-.5264 1.8021-1.2148.4859-1.2655 1.4831-2.2678 2.7688-2.7689.6935-.2734 1.2149-.9517 1.2149-1.80206v-3.86734c0-1.06301-.8504-1.91848-1.9489-1.91848-1.063 0-1.9184.70361-1.8881 1.91848l.0304 3.10804-4.47475-4.47475c-.75929-.76436-1.99441-.74917-2.73852 0zm20.12567 0c.7593-.76436 1.9944-.74917 2.7385 0 .7441.7441.7593 1.9792 0 2.73849l-4.4748 4.47482 3.1081-.0304c1.2148-.0304 1.9185.8251 1.9185 1.8881 0 1.0984-.8555 1.9488-1.9185 1.9488h-3.8673c-.8505 0-1.5288-.5213-1.8021-1.2148-.5062-1.2858-1.5034-2.283-2.7689-2.7689-.6884-.2632-1.2148-.9517-1.2148-1.80206v-3.86734c0-1.06301.8554-1.91848 1.9488-1.91848 1.063 0 1.9185.70361 1.8881 1.91848l-.0304 3.10804zm2.7385 20.12631c.7644.7593.7492 1.9894 0 2.7386-.7492.7441-1.9792.7592-2.7385 0l-4.4748-4.4748.0304 3.108c.0304 1.2149-.8251 1.9185-1.8881 1.9185-1.0985 0-1.9488-.8555-1.9488-1.9185v-3.8673c0-.8504.5213-1.5287 1.2148-1.8021 1.2858-.5011 2.283-1.5033 2.7689-2.7688.2632-.6885.9516-1.2149 1.8021-1.2149h3.8673c1.063 0 1.9185.8555 1.9185 1.9489 0 1.068-.7037 1.9184-1.9185 1.888l-3.1081-.0303zm-20.1263 2.7386c-.75929.7643-1.99441.7491-2.73851 0-.74917-.7492-.76436-1.9793 0-2.7386l4.47477-4.4747-3.10804.0303c-1.21487.0304-1.91849-.825-1.91849-1.888 0-1.0985.85548-1.9489 1.91849-1.9489h3.86733c.85045 0 1.52875.5214 1.80205 1.2149.5062 1.2857 1.5034 2.2829 2.7689 2.7688.6884.2633 1.2149.9517 1.2149 1.8021v3.8673c0 1.063-.8555 1.9185-1.9489 1.9185-1.0681 0-1.9185-.7036-1.8881-1.9185l.0304-3.108z" fill="#03965f" fill-rule="evenodd"/></svg>

<svg width="32" height="32" viewBox="0 0 32 32" fill="none" xmlns="http://www.w3.org/2000/svg">
<path fill-rule="evenodd" clip-rule="evenodd" d="M4.56823 4.56759C3.81906 5.31675 3.80894 6.54679 4.56823 7.30608L9.04301 11.7809L5.93497 11.7505C4.7201 11.7201 4.01648 12.5705 4.01648 13.6386C4.01648 14.732 4.87196 15.5874 5.93497 15.5874H9.8023C10.6527 15.5874 11.3411 15.061 11.6044 14.3726C12.0903 13.1071 13.0875 12.1048 14.3732 11.6037C15.0667 11.3303 15.5881 10.652 15.5881 9.80164V5.9343C15.5881 4.87129 14.7377 4.01582 13.6392 4.01582C12.5762 4.01582 11.7208 4.71943 11.7511 5.9343L11.7815 9.04234L7.30675 4.56759C6.54746 3.80323 5.31234 3.81842 4.56823 4.56759ZM24.6939 4.56759C25.4532 3.80323 26.6883 3.81842 27.4324 4.56759C28.1765 5.31169 28.1917 6.54679 27.4324 7.30608L22.9576 11.7809L26.0657 11.7505C27.2805 11.7201 27.9842 12.5756 27.9842 13.6386C27.9842 14.737 27.1287 15.5874 26.0657 15.5874H22.1984C21.3479 15.5874 20.6696 15.0661 20.3963 14.3726C19.8901 13.0868 18.8929 12.0896 17.6274 11.6037C16.939 11.3405 16.4126 10.652 16.4126 9.80164V5.9343C16.4126 4.87129 17.268 4.01582 18.3614 4.01582C19.4244 4.01582 20.2799 4.71943 20.2495 5.9343L20.2191 9.04234L24.6939 4.56759ZM27.4324 24.6939C28.1968 25.4532 28.1816 26.6833 27.4324 27.4325C26.6832 28.1766 25.4532 28.1917 24.6939 27.4325L20.2191 22.9577L20.2495 26.0657C20.2799 27.2806 19.4244 27.9842 18.3614 27.9842C17.2629 27.9842 16.4126 27.1287 16.4126 26.0657V22.1984C16.4126 21.348 16.9339 20.6697 17.6274 20.3963C18.9132 19.8952 19.9104 18.893 20.3963 17.6275C20.6595 16.939 21.3479 16.4126 22.1984 16.4126H26.0657C27.1287 16.4126 27.9842 17.2681 27.9842 18.3615C27.9842 19.4295 27.2805 20.2799 26.0657 20.2495L22.9576 20.2192L27.4324 24.6939ZM7.3061 27.4325C6.54681 28.1968 5.31169 28.1816 4.56759 27.4325C3.81842 26.6833 3.80323 25.4532 4.56759 24.6939L9.04236 20.2192L5.93432 20.2495C4.71945 20.2799 4.01583 19.4245 4.01583 18.3615C4.01583 17.263 4.87131 16.4126 5.93432 16.4126H9.80165C10.6521 16.4126 11.3304 16.934 11.6037 17.6275C12.1099 18.9132 13.1071 19.9104 14.3726 20.3963C15.061 20.6596 15.5875 21.348 15.5875 22.1984V26.0657C15.5875 27.1287 14.732 27.9842 13.6386 27.9842C12.5705 27.9842 11.7201 27.2806 11.7505 26.0657L11.7809 22.9577L7.3061 27.4325Z" fill="#03965F"/>
</svg>
